src/basic/400/u2913-download.svg

<svg width="25" height="32" viewBox="0 0 25 32" fill="none" xmlns="http://www.w3.org/2000/svg">
<path fill-rule="evenodd" clip-rule="evenodd" d="M11.8536,24.2929v-22.2929h1v22.2929l11.1464,-11.1464l0.7072,0.7071l-12,12l-0.3536,0.3535l-0.3535,-0.3535l-12.00005,-12.0001l0.70711,-0.7071zM24,28h-22.99997v-1h22.99997z" fill="black"/>
</svg>

<svg width="25" height="32" viewBox="0 0 25 32" fill="none" xmlns="http://www.w3.org/2000/svg">
<path fill-rule="evenodd" clip-rule="evenodd" d="M11.8536 24.2929L11.8536 2L12.8536 2L12.8536 24.2929L24 13.1465L24.7072 13.8536L12.7072 25.8536L12.3536 26.2071L12.0001 25.8536L4.52582e-05 13.8535L0.707153 13.1464L11.8536 24.2929ZM24 28L1.00003 28L1.00003 27L24 27L24 28Z" fill="black"/>
</svg>
